%
O00057 (C5THURS9AM)
(Using high feed G1 F500. instead of G0.)
(T4 D=0.5 CR=0. - ZMIN=0.3456 - flat end mill)
(T5 D=0.25 CR=0. TAPER=90deg - ZMIN=0.86 - spot drill)
N10 G90 G17
N15 G20
N20 G53 G0 Z0.

(Face2 2)
N25 T4 M6
N30 S6000 M3
N35 G17 G90
N40 G54
N45 M8
N50 G1 X-2.8704 Y-1.825 F500.
N55 G0 G43 Z1.6 H4
N60 T5
N65 G0 Z1.2
N70 G1 Z0.98 F89.4
N75 G19 G3 Y-1.775 Z0.93 J0.05 K0.
N80 G1 Y-1.7504
N85 Y0.2504
N90 G17 G2 X-2.4949 I0.1878 J0.
N95 G1 Y-1.7504
N100 G3 X-2.1193 I0.1878 J0.
N105 G1 Y0.2504
N110 G2 X-1.7437 I0.1878 J0.
N115 G1 Y-1.7504
N120 G3 X-1.3682 I0.1878 J0.
N125 G1 Y0.2504
N130 G2 X-0.9926 I0.1878 J0.
N135 G1 Y-1.7504
N140 G3 X-0.6171 I0.1878 J0.
N145 G1 Y0.2504
N150 G2 X-0.2415 I0.1878 J0.
N155 G1 Y-1.7504
N160 G19 G2 Y-1.8004 Z0.98 J0. K0.05
N165 G0 Z1.6

(2D Pocket4 2)
N170 G17
N175 G1 X0.298 Y-0.6114 F500.
N180 G0 Z1.6
N185 Z0.9
N190 G1 Z0.5678 F89.4
N195 X0.2978 Z0.5627
N200 X0.2969 Y-0.6112 Z0.5578
N205 X0.2956 Y-0.611 Z0.5529
N210 X0.2936 Y-0.6107 Z0.5483
N215 X0.2912 Y-0.6103 Z0.5438
N220 X0.2884 Y-0.6099 Z0.5397
N225 X0.285 Y-0.6093 Z0.536
N230 X0.2813 Y-0.6088 Z0.5326
N235 X0.2772 Y-0.6081 Z0.5297
N240 X0.2729 Y-0.6074 Z0.5272
N245 X0.2683 Y-0.6067 Z0.5253
N250 X0.2635 Y-0.6059 Z0.5239
N255 X0.2586 Y-0.6052 Z0.5231
N260 X0.2536 Y-0.6044 Z0.5228
N265 X0.2533 Y-0.6043
N270 X0.2494 Y-0.6039
N275 X0.2455 Y-0.6037
N280 X-3.2457
N285 G3 X-3.2707 Y-0.6287 I0. J-0.025
N290 G1 X-3.2705 Y-0.865
N295 G3 X-3.2455 Y-0.89 I0.025 J0.
N300 G1 X0.2457
N305 G3 X0.2686 Y-0.875 I0. J0.025
N310 G1 X0.3685 Y-0.6466
N315 G3 X0.3475 Y-0.6116 I-0.0229 J0.01
N320 G1 X0.3419 Y-0.6112 Z0.5225
N325 X0.3364 Y-0.6108 Z0.5215
N330 X0.331 Y-0.6103 Z0.52
N335 X0.3259 Y-0.6099 Z0.5178
N340 X0.321 Y-0.6096 Z0.5151
N345 X0.3164 Y-0.6092 Z0.5119
N350 X0.3123 Y-0.6089 Z0.5081
N355 X0.3085 Y-0.6086 Z0.504
N360 X0.3053 Y-0.6083 Z0.4994
N365 X0.3026 Y-0.6081 Z0.4945
N370 X0.3005 Y-0.6079 Z0.4893
N375 X0.2989 Y-0.6078 Z0.4839
N380 X0.298 Y-0.6077 Z0.4784
N385 X0.2977 Z0.4728
N390 Z0.3956
N395 X0.2973 Z0.39
N400 X0.2964 Y-0.6076 Z0.3844
N405 X0.2949 Y-0.6075 Z0.3791
N410 X0.2927 Y-0.6073 Z0.3739
N415 X0.29 Y-0.6071 Z0.369
N420 X0.2868 Y-0.6069 Z0.3644
N425 X0.2831 Y-0.6066 Z0.3602
N430 X0.2789 Y-0.6062 Z0.3565
N435 X0.2743 Y-0.6059 Z0.3532
N440 X0.2694 Y-0.6055 Z0.3505
N445 X0.2643 Y-0.6051 Z0.3484
N450 X0.2589 Y-0.6047 Z0.3468
N455 X0.2534 Y-0.6042 Z0.3459
N460 X0.2478 Y-0.6038 Z0.3456
N465 X0.2455 Y-0.6037
N470 X-3.2457
N475 G3 X-3.2707 Y-0.6287 I0. J-0.025
N480 G1 X-3.2705 Y-0.865
N485 G3 X-3.2455 Y-0.89 I0.025 J0.
N490 G1 X0.2457
N495 X0.2496 Y-0.8898
N500 X0.2535 Y-0.8894
N505 X0.2554 Y-0.8891
N510 X0.261 Y-0.8882 Z0.3459
N515 X0.2664 Y-0.8873 Z0.3468
N520 X0.2717 Y-0.8865 Z0.3484
N525 X0.2769 Y-0.8857 Z0.3505
N530 X0.2817 Y-0.8849 Z0.3532
N535 X0.2862 Y-0.8842 Z0.3565
N540 X0.2903 Y-0.8835 Z0.3602
N545 X0.294 Y-0.883 Z0.3644
N550 X0.2972 Y-0.8825 Z0.369
N555 X0.2999 Y-0.882 Z0.3739
N560 X0.302 Y-0.8817 Z0.3791
N565 X0.3036 Y-0.8815 Z0.3844
N570 X0.3045 Y-0.8813 Z0.39
N575 X0.3048 Z0.3956
N580 G0 Z1.6

(2D Pocket6 2)
N585 G1 X-1.8476 Y0.2932 F500.
N590 G0 Z1.6
N595 Z1.2
N600 G1 Z1.0394 F89.4
N605 Z0.75
N610 X-1.8474 Y0.2929 Z0.7444
N615 X-1.8469 Y0.2921 Z0.7389
N620 X-1.8461 Y0.2908 Z0.7335
N625 X-1.845 Y0.289 Z0.7283
N630 X-1.8436 Y0.2866 Z0.7234
N635 X-1.8419 Y0.2839 Z0.7188
N640 X-1.8399 Y0.2807 Z0.7146
N645 X-1.8377 Y0.2771 Z0.7109
N650 X-1.8353 Y0.2732 Z0.7077
N655 X-1.8328 Y0.269 Z0.705
N660 X-1.8301 Y0.2646 Z0.7028
N665 X-1.8273 Y0.26 Z0.7013
N670 X-1.8244 Y0.2553 Z0.7003
N675 X-1.8215 Y0.2505 Z0.7
N680 X-1.8204 Y0.2489
N685 G2 X-1.6924 Y-0.3847 I-0.8046 J-0.4923
N690 X-1.6019 Y-0.5516 I-1.5477 J-0.947
N695 X-1.6038 Y-0.7435 I-0.1975 J-0.0941
N700 G1 X-1.6044 Y-0.7452
N705 X-1.6046 Y-0.7469
N710 X-1.6044 Y-0.7486
N715 X-1.6038 Y-0.7502
N720 G2 X-1.501 Y-1.0792 I-1.0212 J-0.4998
N725 G1 X-1.5006 Y-1.0798
N730 X-1.5 Y-1.0801
N735 X-1.4994 Y-1.0798
N740 X-1.499 Y-1.0792
N745 G2 X-1.3962 Y-0.7502 I1.124 J-0.1708
N750 G1 X-1.3956 Y-0.7486
N755 X-1.3954 Y-0.7469
N760 X-1.3956 Y-0.7452
N765 X-1.3962 Y-0.7435
N770 G2 X-1.499 Y-0.4145 I1.0212 J0.4998
N775 G1 X-1.4994 Y-0.4139
N780 X-1.5 Y-0.4136
N785 X-1.5006 Y-0.4139
N790 X-1.501 Y-0.4145
N795 G2 X-1.6038 Y-0.7435 I-1.124 J0.1708
N800 G1 X-1.6041 Y-0.7445
N805 X-1.6039 Y-0.7455
N810 X-1.6034 Y-0.7464
N815 X-1.6025 Y-0.747
N820 X-1.6015 Y-0.7472
N825 X-1.5895 Y-0.7469
N830 G3 X-1.5622 Y-0.7216 I0. J0.0274
N835 G1 X-1.5001 Y0.0671
N840 X-1.5 Y0.0693
N845 G3 X-1.5106 Y0.0897 I-0.025 J0.
N850 G1 X-1.7847 Y0.2824
N855 G3 X-1.8204 Y0.2489 I-0.0144 J-0.0205
N860 G2 X-1.8255 Y-0.7439 I-0.8046 J-0.4923
N865 G1 X-1.8261 Y-0.7453
N870 X-1.8264 Y-0.7469
N875 X-1.8261 Y-0.7484
N880 X-1.8255 Y-0.7498
N885 G2 X-1.8245 Y-1.7489 I-0.7998 J-0.5003
N890 G3 X-1.8033 Y-1.7871 I0.0212 J-0.0132
N895 G1 X-1.1968 Y-1.7872
N900 G3 X-1.1756 Y-1.749 I0. J0.025
N905 G2 X-1.1745 Y-0.7498 I0.8006 J0.4987
N910 G1 X-1.1739 Y-0.7484
N915 X-1.1736 Y-0.7469
N920 X-1.1739 Y-0.7453
N925 X-1.1745 Y-0.7439
N930 G2 X-1.1793 Y0.249 I0.7998 J0.5003
N935 G3 X-1.2005 Y0.287 I-0.0213 J0.0131
N940 G1 X-2.1933 Y0.2931
N945 G3 X-2.2096 Y0.249 I-0.0002 J-0.025
N950 G2 X-2.2207 Y-0.7451 I-0.4154 J-0.4924
N955 G1 X-2.2213 Y-0.7459
N960 X-2.2216 Y-0.7469
N965 X-2.2213 Y-0.7478
N970 X-2.2207 Y-0.7486
N975 G2 X-2.2172 Y-1.7489 I-0.4045 J-0.5015
N980 X-2.2332 Y-1.7546 I-0.0158 J0.0194
N985 G1 X-3.0209 Y-1.7515
N990 G2 X-3.0368 Y-1.7457 I0.0001 J0.025
N995 X-3.249 Y-1.4106 I0.4118 J0.4955
N1000 G1 X-3.2496 Y-1.4075
N1005 X-3.2498 Y-1.4044
N1010 Y-1.0962
N1015 X-3.2496 Y-1.093
N1020 X-3.249 Y-1.09
N1025 G2 X-3.0293 Y-0.7486 I0.624 J-0.1603
N1030 G1 X-3.0287 Y-0.7478
N1035 X-3.0284 Y-0.7469
N1040 X-3.0287 Y-0.7459
N1045 X-3.0293 Y-0.7451
N1050 G2 X-3.249 Y-0.4036 I0.4045 J0.5015
N1055 G1 X-3.2495 Y-0.4005
N1060 X-3.2497 Y-0.3973
N1065 X-3.2498 Y-0.0898
N1070 X-3.2496 Y-0.0866
N1075 X-3.249 Y-0.0836
N1080 G2 X-3.0455 Y0.2446 I0.6241 J-0.16
N1085 X-2.7051 Y0.2471 I0.1717 J-0.1992
N1090 G3 X-2.4328 Y0.0428 I2.0703 J2.4756
N1095 G2 X-2.8172 Y-0.5302 I-0.1922 J-0.2865
N1100 X-2.4328 Y0.0428 I0.1922 J0.2865
N1105 G3 X-2.4212 Y0.0387 I0.0139 J0.0208
N1110 G1 X-2.3125 Y0.0285
N1115 G2 X-2.2899 Y0.0056 I-0.0023 J-0.0249
N1120 G1 X-2.2117 Y-0.9428
N1125 G2 X-2.2164 Y-0.9596 I-0.0249 J-0.0021
N1130 G1 X-2.3074 Y-1.0842
N1135 G3 X-2.31 Y-1.1092 I0.0202 J-0.0147
N1140 G2 X-2.94 Y-1.3908 I-0.315 J-0.1408
N1145 X-2.31 Y-1.1092 I0.315 J0.1408
N1150 G3 X-2.2975 Y-1.1218 I0.0228 J0.0102
N1155 G1 X-0.809 Y-1.7911
N1160 G3 X-0.7829 Y-1.7489 I0.0103 J0.0228
N1165 G2 X-0.7793 Y-0.7486 I0.4079 J0.4987
N1170 G1 X-0.7787 Y-0.7478
N1175 X-0.7784 Y-0.7469
N1180 X-0.7787 Y-0.7459
N1185 X-0.7793 Y-0.7451
N1190 G2 X-0.7903 Y0.249 I0.4045 J0.5015
N1195 X-0.774 Y0.2549 I0.0161 J-0.0191
N1200 G1 X0.0294 Y0.2506
N1205 G2 X0.0456 Y0.2446 I-0.0001 J-0.025
N1210 X0.249 Y-0.0831 I-0.4206 J-0.488
N1215 G1 X0.2496 Y-0.0862
N1220 X0.2498 Y-0.0893
N1225 Y-0.3975
N1230 X0.2496 Y-0.4007
N1235 X0.249 Y-0.4037
N1240 G2 X0.0293 Y-0.7451 I-0.624 J0.1603
N1245 G1 X0.0287 Y-0.7459
N1250 X0.0284 Y-0.7469
N1255 X0.0287 Y-0.7478
N1260 X0.0293 Y-0.7486
N1265 G2 X0.249 Y-1.0901 I-0.4045 J-0.5015
N1270 G1 X0.2495 Y-1.0932
N1275 X0.2497 Y-1.0964
N1280 X0.2498 Y-1.4039
N1285 X0.2496 Y-1.4071
N1290 X0.249 Y-1.4101
N1295 G2 X0.0367 Y-1.7457 I-0.6241 J0.16
N1300 X-0.3037 Y-1.7421 I-0.1681 J0.2023
N1305 G3 X-0.5723 Y-1.533 I-2.1146 J-2.4386
N1310 G2 X-0.1777 Y-0.967 I0.1973 J0.283
N1315 X-0.5723 Y-1.533 I-0.1973 J-0.283
N1320 G3 X-0.5841 Y-1.5286 I-0.0143 J-0.0205
N1325 G1 X-0.691 Y-1.5177
N1330 G2 X-0.7134 Y-1.4948 I0.0026 J0.0249
N1335 G1 X-0.7886 Y-0.551
N1340 G2 X-0.7839 Y-0.5342 I0.0249 J0.002
N1345 G1 X-0.6926 Y-0.4095
N1350 G3 X-0.6899 Y-0.3846 I-0.0202 J0.0148
N1355 G2 X-0.0601 Y-0.1029 I0.3149 J0.1409
N1360 X-0.6899 Y-0.3846 I-0.3149 J-0.1409
N1365 G1 X-0.6913 Y-0.3819 Z0.7002
N1370 X-0.6929 Y-0.3793 Z0.7004
N1375 X-0.6945 Y-0.3768 Z0.7009
N1380 X-0.6964 Y-0.3745 Z0.7015
N1385 X-0.6983 Y-0.3723 Z0.7024
N1390 X-0.7003 Y-0.3703 Z0.7032
N1395 X-0.7045 Y-0.3667 Z0.7057
N1400 X-0.7088 Y-0.3638 Z0.7089
N1405 X-0.713 Y-0.3616 Z0.7126
N1410 X-0.7169 Y-0.3599 Z0.7168
N1415 X-0.7204 Y-0.3587 Z0.7216
N1420 X-0.7234 Y-0.358 Z0.7268
N1425 X-0.7259 Y-0.3575 Z0.7323
N1430 X-0.7277 Y-0.3572 Z0.738
N1435 X-0.7287 Y-0.3571 Z0.744
N1440 X-0.7291 Z0.75
N1445 G0 Z1.6

(2D Contour3)
N1450 G1 X-0.4 Y-0.7969 F500.
N1455 G0 Z1.6
N1460 Z1.2
N1465 G1 Z1.0394 F89.4
N1470 Z0.3956
N1475 G18 G2 X-0.35 Z0.3456 I0.05 K0.
N1480 G1 X-0.3
N1485 G17 G3 X-0.25 Y-0.7469 I0. J0.05
N1490 G1 Y-0.6037
N1495 X-2.75
N1500 Y-0.89
N1505 X-0.25
N1510 Y-0.7469
N1515 G3 X-0.3 Y-0.6969 I-0.05 J0.
N1520 G1 X-0.35
N1525 G18 G3 X-0.4 Z0.3956 I0. K0.05
N1530 G0 Z1.6
N1535 M9
N1540 M5
N1545 G53 G0 Z0.

(2D Chamfer3 2)
N1550 M1
N1555 T5 M6
N1560 S4500 M3
N1565 G17 G90
N1570 G54
N1575 M8
N1580 G1 X-2.4744 Y-0.3111 F500.
N1585 G0 G43 Z1.6 H5
N1590 T4
N1595 G0 Z1.2
N1600 G1 Z1.08 F10.
N1605 Z0.86
N1610 X-2.4972 Y-0.3009 F22.
N1615 G2 X-2.7528 Y-0.1865 I-0.1278 J0.0572 F25.
N1620 X-2.4972 Y-0.3009 I0.1278 J-0.0572
N1625 G1 X-2.4744 Y-0.3111 F22.
N1630 G0 Z1.2
N1635 Y-1.1826
N1640 G1 Z1.08 F10.
N1645 Z0.86
N1650 X-2.4972 Y-1.1928 F22.
N1655 G2 X-2.7528 Y-1.3072 I-0.1278 J-0.0572 F25.
N1660 X-2.4972 Y-1.1928 I0.1278 J0.0572
N1665 G1 X-2.4744 Y-1.1826 F22.
N1670 G0 Z1.2
N1675 X-0.5256
N1680 G1 Z1.08 F10.
N1685 Z0.86
N1690 X-0.5028 Y-1.1928 F22.
N1695 G2 X-0.2472 Y-1.3072 I0.1278 J-0.0572 F25.
N1700 X-0.5028 Y-1.1928 I-0.1278 J0.0572
N1705 G1 X-0.5256 Y-1.1826 F22.
N1710 G0 Z1.2
N1715 Y-0.3111
N1720 G1 Z1.08 F10.
N1725 Z0.86
N1730 X-0.5028 Y-0.3009 F22.
N1735 G2 X-0.2472 Y-0.1865 I0.1278 J0.0572 F25.
N1740 X-0.5028 Y-0.3009 I-0.1278 J-0.0572
N1745 G1 X-0.5256 Y-0.3111 F22.
N1750 G0 Z1.6

N1755 M5
N1760 M9
N1765 G53 G0 Z0.
N1770 X-1.5
N1775 G53 G0 Y0.
N1780 M98 P9004
N1785 M30

%
