%
O00053 (C5THURS9AM)
(Using high feed G1 F500. instead of G0.)
(T1 D=0.125 CR=0. - ZMIN=-0.03 - flat end mill)
(T5 D=0.25 CR=0. TAPER=90deg - ZMIN=0.18 - spot drill)
N10 G90 G17
N15 G20
N20 G53 G0 Z0.

(Bore3)
N25 T1 M6
N30 S6000 M3
N35 G17 G90
N40 G54
N45 M8
N50 G1 X-2.6138 Y-0.2625 F500.
N55 G0 G43 Z0.85 H1
N60 T5
N65 G0 Z0.3
N70 G1 Z0.2325 F32.4
N75 G18 G2 X-2.6012 Z0.22 I0.0125 K0.
N80 G1 X-2.595
N85 G17 G3 X-2.5825 Y-0.25 I0. J0.0125
N90 X-2.5827 Y-0.2537 Z0.1835 I-0.0425 J0.
N95 X-2.5831 Y-0.2574 Z0.147 I-0.0423 J0.0037
N100 X-2.5839 Y-0.261 Z0.1105 I-0.0419 J0.0074
N105 X-2.5851 Y-0.2645 Z0.0739 I-0.0411 J0.011
N110 X-2.5865 Y-0.268 Z0.0374 I-0.0399 J0.0145
N115 X-2.5882 Y-0.2713 Z0.0009 I-0.0385 J0.018
N120 X-2.6246 Y-0.2925 Z-0.03 I-0.0368 J0.0213
N125 X-2.6254 Y-0.2075 I-0.0004 J0.0425
N130 X-2.6246 Y-0.2925 I0.0004 J-0.0425
N135 X-2.6122 Y-0.2799 I-0.0001 J0.0125
N140 G1 X-2.6123 Y-0.2736
N145 Y-0.2708 Z-0.0297
N150 Y-0.2682 Z-0.0288
N155 Y-0.2658 Z-0.0273
N160 X-2.6124 Y-0.2639 Z-0.0253
N165 Y-0.2624 Z-0.0229
N170 Y-0.2614 Z-0.0203
N175 Y-0.2611 Z-0.0175
N180 G0 Z0.45
N185 G1 X-2.6138 Y-1.2562 F500.
N190 G0 Z0.3
N195 G1 Z0.2325 F32.4
N200 G18 G2 X-2.6012 Z0.22 I0.0125 K0.
N205 G1 X-2.595
N210 G17 G3 X-2.5825 Y-1.2437 I0. J0.0125
N215 X-2.5827 Y-1.2474 Z0.1835 I-0.0425 J0.
N220 X-2.5831 Y-1.2511 Z0.147 I-0.0423 J0.0037
N225 X-2.5839 Y-1.2547 Z0.1105 I-0.0419 J0.0074
N230 X-2.5851 Y-1.2582 Z0.0739 I-0.0411 J0.011
N235 X-2.5865 Y-1.2617 Z0.0374 I-0.0399 J0.0145
N240 X-2.5882 Y-1.265 Z0.0009 I-0.0385 J0.018
N245 X-2.6246 Y-1.2862 Z-0.03 I-0.0368 J0.0213
N250 X-2.6254 Y-1.2012 I-0.0004 J0.0425
N255 X-2.6246 Y-1.2862 I0.0004 J-0.0425
N260 X-2.6122 Y-1.2736 I-0.0001 J0.0125
N265 G1 X-2.6123 Y-1.2673
N270 Y-1.2646 Z-0.0297
N275 Y-1.2619 Z-0.0288
N280 Y-1.2595 Z-0.0273
N285 X-2.6124 Y-1.2576 Z-0.0253
N290 Y-1.2561 Z-0.0229
N295 Y-1.2551 Z-0.0203
N300 Y-1.2548 Z-0.0175
N305 G0 Z0.45
N310 G1 X-0.3638 Y-1.2562 F500.
N315 G0 Z0.3
N320 G1 Z0.2325 F32.4
N325 G18 G2 X-0.3513 Z0.22 I0.0125 K0.
N330 G1 X-0.345
N335 G17 G3 X-0.3325 Y-1.2437 I0. J0.0125
N340 X-0.3327 Y-1.2474 Z0.1835 I-0.0425 J0.
N345 X-0.3331 Y-1.2511 Z0.147 I-0.0423 J0.0037
N350 X-0.3339 Y-1.2547 Z0.1105 I-0.0419 J0.0074
N355 X-0.3351 Y-1.2582 Z0.0739 I-0.0411 J0.011
N360 X-0.3365 Y-1.2617 Z0.0374 I-0.0399 J0.0145
N365 X-0.3382 Y-1.265 Z0.0009 I-0.0385 J0.018
N370 X-0.3746 Y-1.2862 Z-0.03 I-0.0368 J0.0213
N375 X-0.3754 Y-1.2012 I-0.0004 J0.0425
N380 X-0.3746 Y-1.2862 I0.0004 J-0.0425
N385 X-0.3622 Y-1.2736 I-0.0001 J0.0125
N390 G1 X-0.3623 Y-1.2673
N395 Y-1.2646 Z-0.0297
N400 Y-1.2619 Z-0.0288
N405 Y-1.2595 Z-0.0273
N410 X-0.3624 Y-1.2576 Z-0.0253
N415 Y-1.2561 Z-0.0229
N420 Y-1.2551 Z-0.0203
N425 Y-1.2548 Z-0.0175
N430 G0 Z0.45
N435 G1 X-0.3638 Y-0.2625 F500.
N440 G0 Z0.3
N445 G1 Z0.2325 F32.4
N450 G18 G2 X-0.3513 Z0.22 I0.0125 K0.
N455 G1 X-0.345
N460 G17 G3 X-0.3325 Y-0.25 I0. J0.0125
N465 X-0.3327 Y-0.2537 Z0.1835 I-0.0425 J0.
N470 X-0.3331 Y-0.2574 Z0.147 I-0.0423 J0.0037
N475 X-0.3339 Y-0.261 Z0.1105 I-0.0419 J0.0074
N480 X-0.3351 Y-0.2645 Z0.0739 I-0.0411 J0.011
N485 X-0.3365 Y-0.268 Z0.0374 I-0.0399 J0.0145
N490 X-0.3382 Y-0.2712 Z0.0009 I-0.0385 J0.018
N495 X-0.3746 Y-0.2925 Z-0.03 I-0.0368 J0.0212
N500 X-0.3754 Y-0.2075 I-0.0004 J0.0425
N505 X-0.3746 Y-0.2925 I0.0004 J-0.0425
N510 X-0.3622 Y-0.2799 I-0.0001 J0.0125
N515 G1 X-0.3623 Y-0.2736
N520 Y-0.2708 Z-0.0297
N525 Y-0.2682 Z-0.0288
N530 Y-0.2658 Z-0.0273
N535 X-0.3624 Y-0.2639 Z-0.0253
N540 Y-0.2624 Z-0.0229
N545 Y-0.2614 Z-0.0203
N550 Y-0.2611 Z-0.0175
N555 G0 Z0.85
N560 M9
N565 M5
N570 G53 G0 Z0.

(Engrave1)
N575 M1
N580 T5 M6
N585 S4500 M3
N590 G17 G90
N595 G54
N600 M8
N605 G1 X-1.9035 Y-0.6093 F500.
N610 G0 G43 Z0.85 H5
N615 T1
N620 G0 Z0.45
N625 G1 Z0.25 F10.
N630 X-1.8774 Y-0.6353 Z0.2239 F25.
N635 X-1.8514 Y-0.6093 Z0.25
N640 X-1.8774 Y-0.6353 Z0.2239
N645 Y-0.8366
N650 X-1.877 Y-0.8598 Z0.224
N655 X-1.8768 Y-0.8637 Z0.2241
N660 X-1.8763 Y-0.8707
N665 X-1.8756 Y-0.8791 Z0.2242
N670 X-1.8736 Y-0.8915 Z0.2241
N675 X-1.8732 Y-0.8934 Z0.2242
N680 X-1.8713 Y-0.9016 Z0.2241
N685 X-1.8691 Y-0.9094 Z0.224
N690 X-1.865 Y-0.9214 Z0.2233
N695 X-1.8639 Y-0.9237 Z0.2234
N700 X-1.8581 Y-0.9351 Z0.2235
N705 X-1.8546 Y-0.9413 Z0.2237
N710 X-1.8509 Y-0.9468 Z0.2242
N715 X-1.8491 Y-0.9493 Z0.2246
N720 X-1.8479 Y-0.9507 Z0.2248
N725 X-1.8468 Y-0.9522 Z0.2249
N730 X-1.845 Y-0.954 Z0.2251
N735 X-1.8432 Y-0.9556 Z0.2252
N740 X-1.8413 Y-0.9572 Z0.2251
N745 X-1.8322 Y-0.9638 Z0.225
N750 X-1.8286 Y-0.9663 Z0.2248
N755 X-1.8218 Y-0.97 Z0.2254
N760 X-1.8104 Y-0.9757 Z0.2258
N765 X-1.8088 Y-0.9764 Z0.2259
N770 X-1.801 Y-0.9793
N775 X-1.7972 Y-0.9806 Z0.2261
N780 X-1.7952 Y-0.9812
N785 X-1.7917 Y-0.9821
N790 X-1.7835 Y-0.9838 Z0.2263
N795 X-1.7825 Y-0.984
N800 X-1.7718 Y-0.9852 Z0.2264
N805 X-1.7702 Y-0.9854
N810 X-1.7494 Y-0.9864
N815 X-1.7459 Z0.2266
N820 X-1.7288 Y-0.9856 Z0.2265
N825 X-1.7202 Y-0.9848 Z0.2264
N830 X-1.7186 Y-0.9846
N835 X-1.7114 Y-0.9834 Z0.2263
N840 X-1.7093 Y-0.983 Z0.2262
N845 X-1.7023 Y-0.9812 Z0.2261
N850 X-1.6984 Y-0.9801 Z0.2259
N855 X-1.6935 Y-0.9784 Z0.2258
N860 X-1.689 Y-0.9767 Z0.2256
N865 X-1.6783 Y-0.9723 Z0.2255
N870 X-1.676 Y-0.9712 Z0.2254
N875 X-1.6708 Y-0.9685 Z0.2248
N880 X-1.663 Y-0.9631 Z0.2247
N885 X-1.6582 Y-0.9595 Z0.2244
N890 X-1.6564 Y-0.9581
N895 X-1.6527 Y-0.9548 Z0.2242
N900 X-1.65 Y-0.9521 Z0.2241
N905 X-1.6481 Y-0.9502 Z0.224
N910 X-1.6441 Y-0.9451
N915 X-1.644 Y-0.9449
N920 X-1.6402 Y-0.9391
N925 X-1.6392 Y-0.9374
N930 X-1.6329 Y-0.9256 Z0.2239
N935 X-1.6314 Y-0.9219 Z0.2243
N940 X-1.6307 Y-0.9195
N945 X-1.6266 Y-0.9048 Z0.2241
N950 X-1.6254 Y-0.9001
N955 X-1.6241 Y-0.894 Z0.224
N960 X-1.6232 Y-0.8895 Z0.2241
N965 X-1.6222 Y-0.8833 Z0.224
N970 X-1.6216 Y-0.8786 Z0.2241
N975 X-1.621 Y-0.8723 Z0.2239
N980 X-1.6202 Y-0.8609 Z0.224
N985 X-1.6201 Y-0.8576
N990 X-1.6197 Y-0.8369 Z0.2239
N995 Y-0.6353
N1000 X-1.6457 Y-0.6093 Z0.25
N1005 X-1.6197 Y-0.6353 Z0.2239
N1010 X-1.5936 Y-0.6093 Z0.25
N1015 G0 Z0.45
N1020 G1 X-1.0706 Y-1.0032 F500.
N1025 Z0.25 F10.
N1030 X-1.0996 Y-0.9742 Z0.221 F25.
N1035 X-1.1015 Y-0.9751 Z0.2219
N1040 X-1.1035 Y-0.976 Z0.2228
N1045 X-1.1054 Y-0.9767 Z0.2235
N1050 X-1.1073 Y-0.9774 Z0.2242
N1055 X-1.1092 Y-0.978 Z0.2248
N1060 X-1.1112 Y-0.9786 Z0.2253
N1065 X-1.1131 Y-0.979 Z0.2258
N1070 X-1.115 Y-0.9794 Z0.2261
N1075 X-1.117 Y-0.9796 Z0.2264
N1080 X-1.1189 Y-0.9798 Z0.2266
N1085 X-1.1208 Y-0.9799 Z0.2268
N1090 X-1.2206 Y-0.98
N1095 X-1.2359 Y-0.9797
N1100 X-1.2389 Y-0.9796 Z0.2269
N1105 X-1.2505 Y-0.9788 Z0.2268
N1110 X-1.2584 Y-0.9778 Z0.2269
N1115 X-1.2595 Y-0.9777 Z0.227
N1120 X-1.2649 Y-0.9768 Z0.2268
N1125 X-1.2692 Y-0.9759 Z0.2267
N1130 X-1.2787 Y-0.9736 Z0.2263
N1135 X-1.2881 Y-0.9703 Z0.2258
N1140 X-1.2968 Y-0.9665 Z0.2253
N1145 X-1.2997 Y-0.9649
N1150 X-1.3049 Y-0.9617 Z0.2248
N1155 X-1.3078 Y-0.9597 Z0.2247
N1160 X-1.3119 Y-0.9566 Z0.2242
N1165 X-1.3154 Y-0.9533
N1170 X-1.3168 Y-0.9519
N1175 X-1.3182 Y-0.9505 Z0.224
N1180 X-1.321 Y-0.9474 Z0.2238
N1185 X-1.3231 Y-0.9447 Z0.2237
N1190 X-1.3281 Y-0.9371 Z0.2236
N1195 X-1.3293 Y-0.935 Z0.2237
N1200 X-1.3323 Y-0.929 Z0.2234
N1205 X-1.3341 Y-0.9247
N1210 X-1.3363 Y-0.9188 Z0.2233
N1215 X-1.3378 Y-0.9142 Z0.2232
N1220 X-1.3382 Y-0.9131
N1225 X-1.3389 Y-0.9102 Z0.2231
N1230 X-1.3398 Y-0.9049 Z0.223
N1235 X-1.3402 Y-0.9017 Z0.2231
N1240 X-1.341 Y-0.8906 Z0.223
N1245 X-1.3411 Y-0.8893
N1250 X-1.3401 Y-0.8768 Z0.2231
N1255 X-1.3392 Y-0.8706 Z0.2232
N1260 X-1.3391 Y-0.87
N1265 X-1.3381 Y-0.8657 Z0.2233
N1270 X-1.3365 Y-0.8609 Z0.2236
N1275 X-1.3343 Y-0.8557 Z0.224
N1280 X-1.331 Y-0.8491 Z0.2245
N1285 X-1.3286 Y-0.845 Z0.2246
N1290 X-1.3242 Y-0.839 Z0.2256
N1295 X-1.3226 Y-0.837 Z0.2259
N1300 X-1.321 Y-0.835 Z0.226
N1305 X-1.3163 Y-0.8303 Z0.2264
N1310 X-1.3125 Y-0.8269 Z0.227
N1315 X-1.3086 Y-0.8238 Z0.2276
N1320 X-1.3071 Y-0.8228 Z0.2278
N1325 X-1.3027 Y-0.82 Z0.2285
N1330 X-1.3015 Y-0.8193 Z0.2286
N1335 X-1.2962 Y-0.8166 Z0.2293
N1340 X-1.29 Y-0.8138 Z0.2297
N1345 X-1.2869 Y-0.8125 Z0.2298
N1350 X-1.2844 Y-0.8114
N1355 X-1.2828 Y-0.8106 Z0.2297
N1360 X-1.2812 Y-0.8097 Z0.2295
N1365 X-1.2782 Y-0.8078 Z0.2288
N1370 X-1.2763 Y-0.8065 Z0.2281
N1375 X-1.2736 Y-0.8046 Z0.2269
N1380 X-1.2722 Y-0.8036 Z0.2261
N1385 X-1.2696 Y-0.8013 Z0.2245
N1390 X-1.2658 Y-0.7975 Z0.2216
N1395 X-1.2671 Y-0.7954 Z0.2231
N1400 X-1.2692 Y-0.7924 Z0.2252
N1405 X-1.2714 Y-0.7895 Z0.2271
N1410 X-1.2737 Y-0.7869 Z0.2287
N1415 X-1.2767 Y-0.784 Z0.2302
N1420 X-1.2778 Y-0.7829 Z0.2306
N1425 X-1.279 Y-0.7819 Z0.231
N1430 X-1.2802 Y-0.7809 Z0.2313
N1435 X-1.2814 Y-0.7801 Z0.2315
N1440 X-1.2826 Y-0.7792 Z0.2317
N1445 X-1.2851 Y-0.7777
N1450 X-1.2903 Y-0.7742 Z0.2314
N1455 X-1.2958 Y-0.7701 Z0.2306
N1460 X-1.3001 Y-0.7665 Z0.23
N1465 X-1.3038 Y-0.7631 Z0.2296
N1470 X-1.3058 Y-0.7607 Z0.2292
N1475 X-1.307 Y-0.7592 Z0.2289
N1480 X-1.3111 Y-0.7532 Z0.2282
N1485 X-1.3121 Y-0.7518 Z0.228
N1490 X-1.3155 Y-0.746 Z0.2272
N1495 X-1.3159 Y-0.7453 Z0.2271
N1500 X-1.318 Y-0.7402 Z0.2267
N1505 X-1.3194 Y-0.7362 Z0.2261
N1510 X-1.3207 Y-0.7318 Z0.2256
N1515 X-1.3217 Y-0.7279 Z0.2252
N1520 X-1.3223 Y-0.7239 Z0.2249
N1525 X-1.3229 Y-0.7179 Z0.2247
N1530 X-1.323 Y-0.7162
N1535 X-1.3231 Y-0.7144 Z0.2245
N1540 Y-0.7101 Z0.2242
N1545 X-1.3224 Y-0.7026
N1550 X-1.322 Y-0.6996 Z0.2241
N1555 X-1.321 Y-0.6938
N1560 X-1.3202 Y-0.6904
N1565 X-1.3186 Y-0.6861
N1570 X-1.3165 Y-0.6809 Z0.2243
N1575 X-1.3153 Y-0.6784 Z0.2244
N1580 X-1.3119 Y-0.6718
N1585 X-1.3097 Y-0.6684 Z0.2248
N1590 X-1.308 Y-0.666
N1595 X-1.3053 Y-0.6625
N1600 X-1.3011 Y-0.6577 Z0.2249
N1605 X-1.2981 Y-0.6547 Z0.2251
N1610 X-1.2952 Y-0.6522 Z0.2252
N1615 X-1.291 Y-0.6492 Z0.2256
N1620 X-1.2866 Y-0.6465 Z0.2258
N1625 X-1.2845 Y-0.6453
N1630 X-1.2807 Y-0.6433 Z0.2259
N1635 X-1.2789 Y-0.6426 Z0.226
N1640 X-1.2685 Y-0.6388 Z0.2265
N1645 X-1.2658 Y-0.6381 Z0.2264
N1650 X-1.259 Y-0.6366 Z0.2262
N1655 X-1.2496 Y-0.6348
N1660 X-1.2438 Y-0.6341
N1665 X-1.2327 Y-0.6331 Z0.2266
N1670 X-1.2167 Y-0.6325 Z0.2267
N1675 X-1.2015 Z0.2268
N1680 X-1.1208 Y-0.6326
N1685 X-1.1189 Y-0.6327 Z0.2266
N1690 X-1.117 Y-0.6329 Z0.2264
N1695 X-1.115 Y-0.6331 Z0.2261
N1700 X-1.1131 Y-0.6335 Z0.2258
N1705 X-1.1112 Y-0.6339 Z0.2253
N1710 X-1.1092 Y-0.6345 Z0.2248
N1715 X-1.1073 Y-0.6351 Z0.2242
N1720 X-1.1054 Y-0.6358 Z0.2235
N1725 X-1.1035 Y-0.6365 Z0.2228
N1730 X-1.1015 Y-0.6374 Z0.2219
N1735 X-1.0996 Y-0.6383 Z0.221
N1740 X-1.0706 Y-0.6093 Z0.25
N1745 X-1.0996 Y-0.6383 Z0.221
N1750 X-1.0985 Y-0.6417 Z0.2221
N1755 X-1.0981 Y-0.6435 Z0.2225
N1760 X-1.0977 Y-0.6452 Z0.2229
N1765 X-1.0974 Y-0.647 Z0.2232
N1770 X-1.0971 Y-0.6487 Z0.2235
N1775 X-1.097 Y-0.6505 Z0.2237
N1780 X-1.0968 Y-0.6522 Z0.2238
N1785 X-1.0967 Y-0.654 Z0.2239
N1790 Y-0.7748
N1795 Y-0.7767
N1800 X-1.0968 Y-0.7787 Z0.2238
N1805 X-1.097 Y-0.7806 Z0.2236
N1810 X-1.0972 Y-0.7826 Z0.2234
N1815 X-1.0976 Y-0.7845 Z0.2231
N1820 X-1.098 Y-0.7864 Z0.2226
N1825 X-1.0985 Y-0.7884 Z0.2222
N1830 X-1.099 Y-0.7903 Z0.2216
N1835 X-1.0996 Y-0.7922 Z0.221
N1840 X-1.1003 Y-0.7942 Z0.2203
N1845 X-1.1011 Y-0.7961 Z0.2196
N1850 X-1.1019 Y-0.7981 Z0.2187
N1855 X-1.1052 Z0.2209
N1860 X-1.1083 Z0.2226
N1865 X-1.1111 Z0.224
N1870 X-1.1136 Z0.225
N1875 X-1.1161 Z0.2258
N1880 X-1.1184 Z0.2263
N1885 X-1.1206 Z0.2267
N1890 X-1.2079 Z0.2268
N1895 X-1.2206 Z0.2267
N1900 X-1.2288 Y-0.7979 Z0.2264
N1905 X-1.2341 Y-0.798 Z0.2261
N1910 X-1.2445 Y-0.7977 Z0.2252
N1915 X-1.2468 Z0.2249
N1920 X-1.2615 Y-0.7975 Z0.2225
N1925 X-1.2658 Z0.2216
N1930 X-1.2615 Z0.2225
N1935 X-1.2468 Y-0.7977 Z0.2249
N1940 X-1.2445 Z0.2252
N1945 X-1.2341 Y-0.798 Z0.2261
N1950 X-1.2288 Y-0.7979 Z0.2264
N1955 X-1.2206 Y-0.7981 Z0.2267
N1960 X-1.2079 Z0.2268
N1965 X-1.1206 Z0.2267
N1970 X-1.1184 Z0.2263
N1975 X-1.1161 Z0.2258
N1980 X-1.1136 Z0.225
N1985 X-1.1111 Z0.224
N1990 X-1.1083 Z0.2226
N1995 X-1.1052 Z0.2209
N2000 X-1.1019 Z0.2187
N2005 X-1.1011 Y-0.8 Z0.2196
N2010 X-1.1003 Y-0.8019 Z0.2203
N2015 X-1.0996 Y-0.8039 Z0.221
N2020 X-1.099 Y-0.8058 Z0.2216
N2025 X-1.0985 Y-0.8077 Z0.2222
N2030 X-1.098 Y-0.8097 Z0.2226
N2035 X-1.0976 Y-0.8116 Z0.2231
N2040 X-1.0972 Y-0.8135 Z0.2234
N2045 X-1.097 Y-0.8155 Z0.2236
N2050 X-1.0968 Y-0.8174 Z0.2238
N2055 X-1.0967 Y-0.8194 Z0.2239
N2060 Y-0.8213
N2065 Y-0.9585
N2070 X-1.0968 Y-0.9603 Z0.2238
N2075 X-1.097 Y-0.962 Z0.2237
N2080 X-1.0971 Y-0.9638 Z0.2235
N2085 X-1.0974 Y-0.9655 Z0.2232
N2090 X-1.0977 Y-0.9672 Z0.2229
N2095 X-1.0981 Y-0.969 Z0.2225
N2100 X-1.0985 Y-0.9707 Z0.2221
N2105 X-1.0996 Y-0.9742 Z0.221
N2110 G0 Z0.85

(2D Chamfer3)
N2115 G1 X-0.335 Y-0.25 F500.
N2120 G0 Z0.85
N2125 Z0.45
N2130 G1 Z0.33 F10.
N2135 Z0.18
N2140 X-0.31 F22.
N2145 G3 X-0.44 I-0.065 J0. F25.
N2150 X-0.31 I0.065 J0.
N2155 G1 X-0.335 F22.
N2160 G0 Z0.45
N2165 Y-1.2437
N2170 G1 Z0.33 F10.
N2175 Z0.18
N2180 X-0.31 F22.
N2185 G3 X-0.44 I-0.065 J0. F25.
N2190 X-0.31 I0.065 J0.
N2195 G1 X-0.335 F22.
N2200 G0 Z0.45
N2205 X-2.585
N2210 G1 Z0.33 F10.
N2215 Z0.18
N2220 X-2.56 F22.
N2225 G3 X-2.69 I-0.065 J0. F25.
N2230 X-2.56 I0.065 J0.
N2235 G1 X-2.585 F22.
N2240 G0 Z0.45
N2245 G1 X-2.5865 Y-0.2392 F500.
N2250 Z0.33 F10.
N2255 Z0.18
N2260 X-2.5624 Y-0.2325 F22.
N2265 G3 X-2.6876 Y-0.2675 I-0.0626 J-0.0175 F25.
N2270 X-2.5624 Y-0.2325 I0.0626 J0.0175
N2275 G1 X-2.5865 Y-0.2392 F22.
N2280 G0 Z0.85

N2285 M5
N2290 M9
N2295 G53 G0 Z0.
N2300 X-1.5
N2305 G53 G0 Y0.
N2310 M98 P9004
N2315 M30

%
